usr/share/icons/biglinux-icons-material/symbolic/status/sync-synchronizing-symbolic.svg

<svg width="16" height="16" version="1.2" xmlns="http://www.w3.org/2000/svg">
 <path d="m8 2c-2.793 0-5.128 1.917-5.797 4.5h1.485a4.565 4.565 0 0 1 4.312-3.063c1.387 0 2.631 0.617 3.469 1.594l-1.969 1.969h4.5v-4.5l-1.516 1.516a5.966 5.966 0 0 0-4.484-2.016zm-6 7v4.5l1.766-1.766a5.945 5.945 0 0 0 4.234 1.766c2.793 0 5.128-1.917 5.797-4.5h-1.485a4.565 4.565 0 0 1-4.312 3.063 4.546 4.546 0 0 1-3.219-1.344l1.719-1.719z" fill="#dedede"/>
</svg>

<svg xmlns="http://www.w3.org/2000/svg" width="16" height="16" version="1.2"><path fill="#dedede" d="M8 2C5.207 2 2.872 3.917 2.203 6.5h1.485A4.565 4.565 0 0 1 8 3.437c1.387 0 2.631.617 3.469 1.594L9.5 7H14V2.5l-1.516 1.516A5.966 5.966 0 0 0 8 2zM2 9v4.5l1.766-1.766A5.945 5.945 0 0 0 8 13.5c2.793 0 5.128-1.917 5.797-4.5h-1.485A4.565 4.565 0 0 1 8 12.063a4.546 4.546 0 0 1-3.219-1.344L6.5 9z"/></svg>
